Newaita-dark/actions/32/tool-spray.svg

<?xml version="1.0" encoding="UTF-8"?>
<svg xmlns="http://www.w3.org/2000/svg" xmlns:xlink="http://www.w3.org/1999/xlink" width="32pt" height="32pt" viewBox="0 0 32 32" version="1.1">
<g id="surface1">
<path style=" stroke:none;fill-rule:nonzero;fill:rgb(74.117649%,74.117649%,74.117649%);fill-opacity:1;" d="M 14.554688 1.574219 L 14.554688 4.21875 C 15.285156 4.21875 15.875 4.808594 15.875 5.542969 C 15.875 6.273438 15.285156 6.863281 14.554688 6.863281 L 14.554688 9.511719 L 26.460938 9.511719 L 26.460938 1.574219 Z M 14.554688 1.574219 "/>
<path style=" stroke:none;fill-rule:nonzero;fill:rgb(67.058825%,27.843139%,73.725492%);fill-opacity:1;" d="M 8.601562 6.867188 C 9.332031 6.867188 9.921875 7.457031 9.921875 8.1875 C 9.921875 8.917969 9.332031 9.511719 8.601562 9.511719 C 7.867188 9.511719 7.277344 8.917969 7.277344 8.1875 C 7.277344 7.457031 7.867188 6.867188 8.601562 6.867188 Z M 8.601562 6.867188 "/>
<path style=" stroke:none;fill-rule:nonzero;fill:rgb(67.058825%,27.843139%,73.725492%);fill-opacity:1;" d="M 11.90625 4.21875 C 12.636719 4.21875 13.230469 4.8125 13.230469 5.542969 C 13.230469 6.273438 12.636719 6.867188 11.90625 6.867188 C 11.175781 6.867188 10.585938 6.273438 10.585938 5.542969 C 10.585938 4.8125 11.175781 4.21875 11.90625 4.21875 Z M 11.90625 4.21875 "/>
<path style=" stroke:none;fill-rule:nonzero;fill:rgb(67.058825%,27.843139%,73.725492%);fill-opacity:1;" d="M 8.601562 1.574219 C 9.332031 1.574219 9.921875 2.164062 9.921875 2.894531 C 9.921875 3.625 9.332031 4.21875 8.601562 4.21875 C 7.867188 4.21875 7.277344 3.625 7.277344 2.894531 C 7.277344 2.164062 7.867188 1.574219 8.601562 1.574219 Z M 8.601562 1.574219 "/>
<path style=" stroke:none;fill-rule:nonzero;fill:rgb(67.058825%,27.843139%,73.725492%);fill-opacity:1;" d="M 5.953125 10.171875 C 6.683594 10.171875 7.277344 10.765625 7.277344 11.496094 C 7.277344 12.226562 6.683594 12.820312 5.953125 12.820312 C 5.222656 12.820312 4.628906 12.226562 4.628906 11.496094 C 4.628906 10.765625 5.222656 10.171875 5.953125 10.171875 Z M 5.953125 10.171875 "/>
<path style=" stroke:none;fill-rule:nonzero;fill:rgb(67.058825%,27.843139%,73.725492%);fill-opacity:1;" d="M 3.308594 6.867188 C 4.039062 6.867188 4.628906 7.457031 4.628906 8.1875 C 4.628906 8.917969 4.039062 9.511719 3.308594 9.511719 C 2.578125 9.511719 1.984375 8.917969 1.984375 8.1875 C 1.984375 7.457031 2.578125 6.867188 3.308594 6.867188 Z M 3.308594 6.867188 "/>
<path style=" stroke:none;fill-rule:nonzero;fill:rgb(67.058825%,27.843139%,73.725492%);fill-opacity:1;" d="M 5.953125 4.21875 C 6.683594 4.21875 7.277344 4.8125 7.277344 5.542969 C 7.277344 6.273438 6.683594 6.867188 5.953125 6.867188 C 5.222656 6.867188 4.628906 6.273438 4.628906 5.542969 C 4.628906 4.8125 5.222656 4.21875 5.953125 4.21875 Z M 5.953125 4.21875 "/>
<path style=" stroke:none;fill-rule:nonzero;fill:rgb(67.058825%,27.843139%,73.725492%);fill-opacity:1;" d="M 3.308594 1.574219 C 4.039062 1.574219 4.628906 2.164062 4.628906 2.894531 C 4.628906 3.625 4.039062 4.21875 3.308594 4.21875 C 2.578125 4.21875 1.984375 3.625 1.984375 2.894531 C 1.984375 2.164062 2.578125 1.574219 3.308594 1.574219 Z M 3.308594 1.574219 "/>
<path style=" stroke:none;fill-rule:nonzero;fill:rgb(67.058825%,27.843139%,73.725492%);fill-opacity:1;" d="M 12.570312 10.835938 C 11.46875 10.835938 10.585938 11.71875 10.585938 12.820312 L 10.585938 28.695312 C 10.585938 29.792969 11.46875 30.679688 12.570312 30.679688 L 28.445312 30.679688 C 29.542969 30.679688 30.429688 29.792969 30.429688 28.695312 L 30.429688 12.820312 C 30.429688 11.71875 29.542969 10.835938 28.445312 10.835938 Z M 13.890625 12.820312 L 27.121094 12.820312 C 27.855469 12.820312 28.445312 13.410156 28.445312 14.140625 L 28.445312 27.371094 C 28.445312 28.105469 27.855469 28.695312 27.121094 28.695312 L 13.890625 28.695312 C 13.160156 28.695312 12.570312 28.105469 12.570312 27.371094 L 12.570312 14.140625 C 12.570312 13.410156 13.160156 12.820312 13.890625 12.820312 Z M 13.890625 12.820312 "/>
</g>
</svg>

<svg xmlns="http://www.w3.org/2000/svg" width="32pt" height="32pt" viewBox="0 0 32 32"><path d="M14.555 1.574V4.22c.73 0 1.32.59 1.32 1.324 0 .73-.59 1.32-1.32 1.32v2.649H26.46V1.574zm0 0" fill="#bdbdbd"/><path d="M8.602 6.867a1.322 1.322 0 1 1-1.324 1.32c0-.73.59-1.32 1.324-1.32zm0 0M11.906 4.219a1.325 1.325 0 0 1 0 2.648c-.73 0-1.32-.594-1.32-1.324 0-.73.59-1.324 1.32-1.324zm0 0M8.602 1.574a1.322 1.322 0 1 1-1.324 1.32c0-.73.59-1.32 1.324-1.32zm0 0M5.953 10.172a1.325 1.325 0 0 1 0 2.648 1.325 1.325 0 0 1 0-2.648zm0 0M3.309 6.867a1.322 1.322 0 1 1-1.324 1.32c0-.73.593-1.32 1.324-1.32zm0 0M5.953 4.219a1.325 1.325 0 0 1 0 2.648 1.325 1.325 0 0 1 0-2.648zm0 0M3.309 1.574a1.322 1.322 0 1 1-1.324 1.32c0-.73.593-1.32 1.324-1.32zm0 0M12.57 10.836a1.977 1.977 0 0 0-1.984 1.984v15.875a1.98 1.98 0 0 0 1.984 1.985h15.875a1.982 1.982 0 0 0 1.985-1.985V12.82a1.98 1.98 0 0 0-1.985-1.984zm1.32 1.984h13.231c.734 0 1.324.59 1.324 1.32v13.231a1.32 1.32 0 0 1-1.324 1.324h-13.23c-.73 0-1.32-.59-1.32-1.324v-13.23c0-.73.59-1.32 1.32-1.32zm0 0" fill="#ab47bc"/></svg>
